X:1
T:Office Hymn Versicles (Matins)
C:Ancient liturgical text; chant setting traditional
S:Traditional Lutheran Morning Prayer; public domain
M:C
L:1/4
K:C
%% Minister: From the rising of the sun to its setting
G G G G | G G G G | G G G | A G |
G G G G | G G G G | G G G | F E D2 ||
%% People: The name of the Lord is to be praised
E E E E | E E E E | E E E | F E D2 ||
%% Minister: Blessed be the name of the Lord
G G G G | G G G G | G G G G | G G G G | G G G | F E D2 ||
%% People: From this time forth and forevermore
E E E E | E E E E | E E E | D2 ||

## Musiquik
&0VVVV.VVVV.VVV.WV.VVVV.VVVV.VVV.UTc)TTTT.TTTT.TTT.UTc)VVVV.VVVV.VVVV.VVVV.VVV.UTc)TTTT.TTTT.TTT.c)

#Lyrics
From the rising of the sun to its setting, the name of the Lord is to be praised! (Psalm 113:3) Blessed be the name of the Lord from this time forth and forevermore. (Psalm 113:2)

#Citations and References

Words: Psalm 113:2-3; public domain.
Music: 'Office Hymn Versicles' Traditional versicle tone; ancient, public domain.
Setting: Lutheran Service Book (LSB), Morning Prayer (Matins); traditional.
copyright: public domain.

https://openhymnal.org
